packages/kaspersky-hexa-ui-icons/src/iconsSVGs/64x42/FlagSg.svg

<svg width="64" height="42" viewBox="0 0 64 42" fill="none" xmlns="http://www.w3.org/2000/svg">
<g clip-path="url(#clip0_37941_2341)">
<rect width="64" height="42" rx="5" fill="white"/>
<rect x="0.5" y="0.5" width="63" height="41" rx="4.5" stroke="#F5F5F5"/>
<path fill-rule="evenodd" clip-rule="evenodd" d="M0 21H64V0H0V21Z" fill="#E12237"/>
<path fill-rule="evenodd" clip-rule="evenodd" d="M15.7499 3.93751C16.5565 3.93751 17.3291 4.08302 18.0429 4.34921C16.6953 3.27033 14.9854 2.62512 13.1249 2.62512C8.77564 2.62512 5.24988 6.15089 5.24988 10.5001C5.24988 14.8494 8.77564 18.3752 13.1249 18.3752C14.9857 18.3752 16.6957 17.7298 18.0434 16.6506C17.3295 16.9169 16.5567 17.0625 15.7499 17.0625C12.1256 17.0625 9.18744 14.1244 9.18744 10.5C9.18744 6.87564 12.1256 3.93751 15.7499 3.93751ZM14.4374 10.5C15.1623 10.5 15.7499 9.91239 15.7499 9.18752C15.7499 8.46264 15.1623 7.87501 14.4374 7.87501C13.7126 7.87501 13.1249 8.46264 13.1249 9.18752C13.1249 9.91239 13.7126 10.5 14.4374 10.5ZM18.375 14.4377C18.375 15.1626 17.7874 15.7502 17.0625 15.7502C16.3377 15.7502 15.75 15.1626 15.75 14.4377C15.75 13.7128 16.3377 13.1252 17.0625 13.1252C17.7874 13.1252 18.375 13.7128 18.375 14.4377ZM22.3125 15.7502C23.0373 15.7502 23.625 15.1626 23.625 14.4377C23.625 13.7128 23.0373 13.1252 22.3125 13.1252C21.5876 13.1252 21 13.7128 21 14.4377C21 15.1626 21.5876 15.7502 22.3125 15.7502ZM26.25 9.18752C26.25 9.91239 25.6624 10.5 24.9375 10.5C24.2127 10.5 23.625 9.91239 23.625 9.18752C23.625 8.46264 24.2127 7.87501 24.9375 7.87501C25.6624 7.87501 26.25 8.46264 26.25 9.18752ZM19.6874 6.56251C20.4123 6.56251 20.9999 5.97489 20.9999 5.25001C20.9999 4.52513 20.4123 3.93751 19.6874 3.93751C18.9625 3.93751 18.3749 4.52513 18.3749 5.25001C18.3749 5.97489 18.9625 6.56251 19.6874 6.56251Z" fill="white"/>
</g>
<defs>
<clipPath id="clip0_37941_2341">
<rect width="64" height="42" rx="5" fill="white"/>
</clipPath>
</defs>
</svg>

<svg xmlns="http://www.w3.org/2000/svg" width="64" height="42" fill="none" viewBox="0 0 64 42"><g clip-path="url(#a)"><rect width="64" height="42" fill="#fff" rx="5"/><rect width="63" height="41" x="1" y="1" stroke="#f5f5f5" rx="5"/><path fill="#e12237" fill-rule="evenodd" d="M0 21h64V0H0z" clip-rule="evenodd"/><path fill="#fff" fill-rule="evenodd" d="M15.7499 3.9375a6.55 6.55 0 0 1 2.293.4117c-1.3476-1.0789-3.0575-1.724-4.918-1.724-4.3493 0-7.875 3.5257-7.875 7.8749 0 4.3493 3.5257 7.8751 7.875 7.8751 1.8608 0 3.5708-.6454 4.9185-1.7246a6.55 6.55 0 0 1-2.2935.4119c-3.6243 0-6.5625-2.9381-6.5625-6.5625s2.9382-6.5625 6.5625-6.5625M14.4374 10.5c.7249 0 1.3125-.5876 1.3125-1.3125s-.5876-1.3125-1.3125-1.3125-1.3125.5876-1.3125 1.3125.5877 1.3125 1.3125 1.3125m3.9376 3.9377c0 .7249-.5876 1.3125-1.3125 1.3125s-1.3125-.5876-1.3125-1.3125.5877-1.3125 1.3125-1.3125 1.3125.5876 1.3125 1.3125m3.9375 1.3125c.7248 0 1.3125-.5876 1.3125-1.3125s-.5877-1.3125-1.3125-1.3125S21 13.7128 21 14.4377s.5876 1.3125 1.3125 1.3125M26.25 9.1875c0 .7249-.5876 1.3125-1.3125 1.3125s-1.3125-.5876-1.3125-1.3125.5877-1.3125 1.3125-1.3125 1.3125.5876 1.3125 1.3125m-6.5626-2.625c.7249 0 1.3125-.5876 1.3125-1.3125s-.5876-1.3125-1.3125-1.3125-1.3125.5876-1.3125 1.3125.5876 1.3125 1.3125 1.3125" clip-rule="evenodd"/></g><defs><clipPath id="a"><rect width="64" height="42" fill="#fff" rx="5"/></clipPath></defs></svg>
